X:010 
T:Banks of the Hudson* (reel), The 
F:file ID: cre.5/010banks_h
B:CRE5.202 (gan ainm)
M:4/4
Q:180
R:reel
K:G
B|dfed B2AG|(3FED AD BDAD|dfed B2AG|DEGA BGG:|
d|gedB cBcd|eaag agef|gedc BcBA|Ggga bggf|
gedB cBcd|eaag ageg|gedc BcBA|DEGA BGG|]

%%%

